X: 38191
T: Sprig Of Shillelagh, The
R: polka
M: 2/4
K: Gmajor
|:d2 ed/c/|BG G/G/G|AD D/D/D|BG G/G/G|
d2 ed/c/|BG G/G/G|AD D/E/F/G/|AG G2:|
GB g>f|f e3|A/A/A fe|d3 d|
eA fA|g/g/g/g/ fe|d4|dg ff|
e4|A/A/A fe|d3 d|ef gB|
d/e/d/c/ BA|G4||

